X: 4
T: Temple Hill
R: reel
M: 4/4
L: 1/8
K: Ador
EAAB e2dB|e2dB GABG|EAAB edef|gedB BAA2:|
ea a2 b2 ag|egdg egdg|ea a2 b2 ag|egdB BAAd|
ea a2 b2 ag|egdg egdg|bgaf gefd|(e/f/g dB BA A2||
